images/A_MGFjZjlkZDY2YjhlM2JmORRmAlI_srReFGuZrubC7bvUA3UBRuD7_BevbcdM0eQjl3o3B41IXqDVPaLsg1s-1gIoSTd0l5HI5Pxc_mzDWMOD8fiPdGZQU1OaxlUR_bNk.svg

<svg width="149" height="32" xmlns="http://www.w3.org/2000/svg"><g fill="none" fill-rule="evenodd"><path d="M0 0h149v32H0z"/><path d="M14 7.7c0 1-.8 1.8-1.7 1.8H1.8C.8 9.4 0 8.6 0 7.7s.8-1.8 1.8-1.8h10.5c.9 0 1.7.8 1.7 1.8zm-1.8 16.9H1.8c-1 0-1.7.8-1.7 1.7 0 .9.8 1.7 1.7 1.7h10.5c1 0 1.7-.8 1.7-1.7 0-.9-.8-1.7-1.8-1.7zm5.9-14H1.8c-1 0-1.7.8-1.7 1.7 0 1 .8 1.7 1.7 1.7h16.3c1 0 1.7-.8 1.7-1.7 0-.9-.8-1.7-1.7-1.7zm0 9.3H1.8c-1 0-1.7.8-1.7 1.7 0 1 .8 1.7 1.7 1.7h16.3c1 0 1.7-.8 1.7-1.7 0-.9-.8-1.7-1.7-1.7zm2.4-4.6H1.8C.8 15.3 0 16 0 17s.8 1.7 1.7 1.7h18.6c1 0 1.7-.8 1.7-1.7.1-1-.6-1.7-1.5-1.7zM145.8 13.3c1.3 0 2.4-1.1 2.4-2.4 0-1.3-1.1-2.4-2.4-2.4-1.3 0-2.4 1.1-2.4 2.4 0 1.4 1.1 2.4 2.4 2.4zm0-.2c-1.2 0-2.1-.9-2.1-2.1 0-1.2.9-2.1 2.1-2.1 1.2 0 2.1.9 2.1 2.1 0 1.1-.9 2-2.1 2.1zm-1-1.2c0 .2.1.3.3.3.2 0 .3-.1.3-.3v-.5h.4l.6.7c.1.1.2.1.2.1.2 0 .3-.1.3-.3 0-.1 0-.2-.1-.2l-.4-.5c.3-.1.5-.4.5-.7 0-.5-.4-.8-1-.8h-.9c-.2 0-.3.1-.3.3l.1 1.9zm.6-1v-.7h.5c.3 0 .4.1.4.3 0 .2-.2.3-.4.3h-.5v.1zm-55.2 13c.1.8.8 1.4 1.6 1.3.7-.1 1.2-.6 1.3-1.3V11.5h4c.7-.1 1.3-.7 1.2-1.5-.1-.6-.6-1.1-1.2-1.2H86.3c-.7-.1-1.4.5-1.5 1.2-.1.7.5 1.4 1.2 1.5h4.3v12.4h-.1zm-60.8-.2c0 .8.6 1.4 1.4 1.4h4.6c5.1 0 8.7-3.6 8.7-8.2s-3.6-8.1-8.7-8.1h-4.6c-.8 0-1.4.6-1.5 1.4v13.5h.1zm2.9-1.1V11.5h3.2c2.9-.2 5.5 2.1 5.7 5v.5c.1 2.9-2.1 5.4-5.1 5.5H32.3v.1zM68 23.9c.1.8.8 1.4 1.6 1.3.7-.1 1.2-.6 1.3-1.3v-3.4l2.7-2.6 5.2 6.7c.3.4.7.7 1.2.7.8 0 1.4-.6 1.4-1.3v-.1c0-.4-.1-.7-.4-1L75.6 16l5.1-4.9c.3-.3.5-.7.5-1.1 0-.7-.6-1.3-1.3-1.3-.5 0-.9.2-1.2.5L71 17v-6.8c-.1-.8-.8-1.4-1.6-1.3-.7.1-1.2.6-1.3 1.3L68 23.9zm42.2 1.5c4.6.1 8.4-3.5 8.5-8.1V17c0-4.7-3.8-8.5-8.5-8.5s-8.5 3.8-8.5 8.5c-.1 4.6 3.6 8.4 8.2 8.4.1.1.2.1.3 0zm0-2.6c-3.1 0-5.6-2.5-5.5-5.6V17c-.1-3 2.2-5.6 5.3-5.7h.2c3.1 0 5.6 2.5 5.5 5.6v.2c.1 3-2.2 5.6-5.2 5.7h-.3zm14.2 1.1c.1.8.8 1.4 1.5 1.3.7-.1 1.2-.6 1.3-1.3V13.5l8.4 10.8c.3.5.9.9 1.5.9h.1c.8 0 1.4-.6 1.4-1.4V10.1c-.1-.8-.8-1.4-1.5-1.3-.7.1-1.2.6-1.3 1.3v10l-8.2-10.6c-.3-.5-.9-.8-1.5-.8h-.3c-.8 0-1.4.6-1.4 1.4v13.8zM60.2 17c0-.7-.6-1.3-1.3-1.3h-3.6c-.7 0-1.3.6-1.3 1.3 0 .7.6 1.3 1.3 1.3H59c.7 0 1.3-.6 1.2-1.3zm-7.3 5.6H61c.7 0 1.3.6 1.3 1.3 0 .7-.6 1.3-1.3 1.3h-9.6c-.8 0-1.4-.6-1.4-1.4V10.3c0-.8.6-1.4 1.4-1.4H61c.7 0 1.3.6 1.3 1.3 0 .7-.6 1.3-1.3 1.3h-8.1v11.1z" fill="#1D1D1B" fill-rule="nonzero"/></g></svg>

<?xml version="1.0" encoding="UTF-8"?>
<svg width="149px" height="32px" viewBox="0 0 149 32" version="1.1" xmlns="http://www.w3.org/2000/svg" xmlns:xlink="http://www.w3.org/1999/xlink">
    <title>8181A02A-4F64-4273-A535-1852338F152B</title>
    <g id="WORK-IN-PROCESS" stroke="none" stroke-width="1" fill="none" fill-rule="evenodd">
        <g id="01" transform="translate(-489.000000, -5581.000000)">
            <g id="Nuestras-marcas" transform="translate(204.000000, 5263.000000)">
                <g id="logos_ajustados_DEKTON" transform="translate(285.000000, 318.000000)">
                    <rect id="Rectangle" x="0" y="0" width="149" height="32"></rect>
                    <path d="M14,7.7 C14,8.7 13.2,9.5 12.3,9.5 C12.3,9.5 12.3,9.5 12.3,9.5 L1.8,9.5 C0.8,9.4 0,8.6 0,7.7 C0,6.8 0.8,5.9 1.8,5.9 L12.3,5.9 C13.2,5.9 14,6.7 14,7.7 C14,7.7 14,7.7 14,7.7 Z M12.2,24.6 L1.8,24.6 C0.8,24.6 0.1,25.4 0.1,26.3 C0.1,27.2 0.9,28 1.8,28 C1.8,28 1.8,28 1.8,28 L12.3,28 C13.3,28 14,27.2 14,26.3 C14,25.4 13.2,24.6 12.2,24.6 Z M18.1,10.6 L1.8,10.6 C0.8,10.6 0.1,11.4 0.1,12.3 C0.1,13.3 0.9,14 1.8,14 L18.1,14 C19.1,14 19.8,13.2 19.8,12.3 C19.8,11.4 19,10.6 18.1,10.6 Z M18.1,19.9 L1.8,19.9 C0.8,19.9 0.1,20.7 0.1,21.6 C0.1,22.6 0.9,23.3 1.8,23.3 C1.8,23.3 1.8,23.3 1.8,23.3 L18.1,23.3 C19.1,23.3 19.8,22.5 19.8,21.6 C19.8,20.7 19,19.9 18.1,19.9 Z M20.5,15.3 L1.8,15.3 C0.8,15.3 0,16 0,17 C0,18 0.8,18.7 1.7,18.7 L20.3,18.7 C21.3,18.7 22,17.9 22,17 C22.1,16 21.4,15.3 20.5,15.3 L20.5,15.3 Z" id="Shape" fill="#1D1D1B" fill-rule="nonzero"></path>
                    <path d="M145.8,13.3 C147.1,13.3 148.2,12.2 148.2,10.9 L148.2,10.9 C148.2,9.6 147.1,8.5 145.8,8.5 C144.5,8.5 143.4,9.6 143.4,10.9 L143.4,10.9 C143.4,12.3 144.5,13.3 145.8,13.3 Z M145.8,13.1 C144.6,13.1 143.7,12.2 143.7,11 C143.7,11 143.7,11 143.7,11 L143.7,11 C143.7,9.8 144.6,8.9 145.8,8.9 C147,8.9 147.9,9.8 147.9,11 L147.9,11 C147.9,12.1 147,13 145.8,13.1 L145.8,13.1 Z M144.8,11.9 C144.8,12.1 144.9,12.2 145.1,12.2 C145.3,12.2 145.4,12.1 145.4,11.9 L145.4,11.4 L145.8,11.4 L146.4,12.1 C146.5,12.2 146.6,12.2 146.6,12.2 C146.8,12.2 146.9,12.1 146.9,11.9 C146.9,11.9 146.9,11.9 146.9,11.9 C146.9,11.8 146.9,11.7 146.8,11.7 L146.4,11.2 C146.7,11.1 146.9,10.8 146.9,10.5 C146.9,10 146.5,9.7 145.9,9.7 L145,9.7 C144.8,9.7 144.7,9.8 144.7,10 C144.7,10 144.7,10 144.7,10 L144.8,11.9 Z M145.4,10.9 L145.4,10.2 L145.9,10.2 C146.2,10.2 146.3,10.3 146.3,10.5 C146.3,10.7 146.1,10.8 145.9,10.8 L145.4,10.8 L145.4,10.9 Z M90.2,23.9 C90.3,24.7 91,25.3 91.8,25.2 C92.5,25.1 93,24.6 93.1,23.9 L93.1,11.5 L97.1,11.5 C97.8,11.4 98.4,10.8 98.3,10 C98.2,9.4 97.7,8.9 97.1,8.8 L86.3,8.8 C85.6,8.7 84.9,9.3 84.8,10 C84.7,10.7 85.3,11.4 86,11.5 C86.1,11.5 86.2,11.5 86.3,11.5 L90.3,11.5 L90.3,23.9 L90.2,23.9 Z M29.4,23.7 C29.4,24.5 30,25.1 30.8,25.1 C30.8,25.1 30.8,25.1 30.8,25.1 L35.4,25.1 C40.5,25.1 44.1,21.5 44.1,16.9 L44.1,16.9 C44.1,12.3 40.5,8.8 35.4,8.8 L30.8,8.8 C30,8.8 29.4,9.4 29.3,10.2 C29.3,10.2 29.3,10.2 29.3,10.2 L29.3,23.7 L29.4,23.7 Z M32.3,22.6 L32.3,11.5 L35.5,11.5 C38.4,11.3 41,13.6 41.2,16.5 C41.2,16.7 41.2,16.8 41.2,17 L41.2,17 C41.3,19.9 39.1,22.4 36.1,22.5 C35.9,22.5 35.7,22.5 35.5,22.5 L32.3,22.5 L32.3,22.6 Z M68,23.9 C68.1,24.7 68.8,25.3 69.6,25.2 C70.3,25.1 70.8,24.6 70.9,23.9 L70.9,20.5 L73.6,17.9 L78.8,24.6 C79.1,25 79.5,25.3 80,25.3 C80.8,25.3 81.4,24.7 81.4,24 C81.4,24 81.4,24 81.4,23.9 C81.4,23.5 81.3,23.2 81,22.9 L75.6,16 L80.7,11.1 C81,10.8 81.2,10.4 81.2,10 C81.2,9.3 80.6,8.7 79.9,8.7 C79.9,8.7 79.9,8.7 79.9,8.7 C79.4,8.7 79,8.9 78.7,9.2 L71,17 L71,10.2 C70.9,9.4 70.2,8.8 69.4,8.9 C68.7,9 68.2,9.5 68.1,10.2 L68,23.9 Z M110.2,25.4 C114.8,25.5 118.6,21.9 118.7,17.3 C118.7,17.2 118.7,17.1 118.7,17 L118.7,17 C118.7,12.3 114.9,8.5 110.2,8.5 C105.5,8.5 101.7,12.3 101.7,17 L101.7,17 C101.6,21.6 105.3,25.4 109.9,25.4 C110,25.5 110.1,25.5 110.2,25.4 L110.2,25.4 Z M110.2,22.8 C107.1,22.8 104.6,20.3 104.7,17.2 C104.7,17.1 104.7,17.1 104.7,17 L104.7,17 C104.6,14 106.9,11.4 110,11.3 C110.1,11.3 110.2,11.3 110.2,11.3 C113.3,11.3 115.8,13.8 115.7,16.9 C115.7,17 115.7,17 115.7,17.1 L115.7,17.1 C115.8,20.1 113.5,22.7 110.5,22.8 C110.4,22.8 110.3,22.8 110.2,22.8 L110.2,22.8 Z M124.4,23.9 C124.5,24.7 125.2,25.3 125.9,25.2 C126.6,25.1 127.1,24.6 127.2,23.9 L127.2,13.5 L135.6,24.3 C135.9,24.8 136.5,25.2 137.1,25.2 L137.2,25.2 C138,25.2 138.6,24.6 138.6,23.8 C138.6,23.8 138.6,23.8 138.6,23.8 L138.6,10.1 C138.5,9.3 137.8,8.7 137.1,8.8 C136.4,8.9 135.9,9.4 135.8,10.1 L135.8,20.1 L127.6,9.5 C127.3,9 126.7,8.7 126.1,8.7 L125.8,8.7 C125,8.7 124.4,9.3 124.4,10.1 C124.4,10.1 124.4,10.1 124.4,10.1 L124.4,23.9 L124.4,23.9 Z M60.2,17 C60.2,16.3 59.6,15.7 58.9,15.7 L58.9,15.7 L55.3,15.7 C54.6,15.7 54,16.3 54,17 C54,17.7 54.6,18.3 55.3,18.3 L59,18.3 C59.7,18.3 60.3,17.7 60.2,17 L60.2,17 Z M52.9,22.6 L61,22.6 C61.7,22.6 62.3,23.2 62.3,23.9 C62.3,24.6 61.7,25.2 61,25.2 C61,25.2 61,25.2 61,25.2 L51.4,25.2 C50.6,25.2 50,24.6 50,23.8 L50,10.3 C50,9.5 50.6,8.9 51.4,8.9 C51.4,8.9 51.4,8.9 51.5,8.9 L61,8.9 C61.7,8.9 62.3,9.5 62.3,10.2 C62.3,10.9 61.7,11.5 61,11.5 L61,11.5 L52.9,11.5 L52.9,22.6 Z" id="Shape" fill="#1D1D1B" fill-rule="nonzero"></path>
                </g>
            </g>
        </g>
    </g>
</svg>
